X: 2205
T: Polonäs efter Abraham Hagholm (nr 13)
S: efter Abraham Hagholm
R: Polonäs
O: Östergötland
B: Abraham Hagholms notbok, nr 13
B: http://www.smus.se/earkiv/fmk/browselarge.php?lang=sw&katalogid=M+26&bildnr=00008
B: Jämför [[http://www.smus.se/earkiv/fmk/browselarge.php?lang=sw&katalogid=Ma+10&bildnr=00024|SMUS - katalog Ma10 bild 24]] nr 174 ur [[Notböcker/Sam Wåhlbergs notbok]] 
B: Jämför [[http://www.smus.se/earkiv/fmk/browselarge.php?lang=sw&katalogid=Sk+3&bildnr=00030|SMUS - katalog Sk3 bild 30]] nr 16
B: Jämför [[http://www.smus.se/earkiv/fmk/browselarge.php?lang=sw&katalogid=MMD+34&bildnr=00004|SMUS - katalog MMD 34 bild 4]] nr 9 ur [[Notböcker/Gustaf Wesliens notbok]] (likheterna skulle kunna vara en slump)
B: Jämför [[http://www.smus.se/earkiv/fmk/browselarge.php?lang=sw&katalogid=Ma+4&bildnr=00019|SMUS - katalog Ma4 bild 19]] nr 38 ur [[Notböcker/Kumlins notsamling]]
B: Jämför [[http://www.smus.se/earkiv/fmk/browselarge.php?lang=sw&katalogid=M+33a&bildnr=00009|SMUS - katalog M33a bild 9]] nr 36
B: Jämför [[http://www.samlingarna.sormlandsspel.se/wp-content/uploads/2013/04/alfred_anderssons_notbok.pdf|Alfred Anderssons notbok]] (pdf) nr 29 sid 23
N: Jämför [[Musik/2235|+]]
Z: Nils L
M: 3/4
L: 1/16
K: D
D2FA d2d2 d4 | d2cd e2e2 e4 | f2ef g2f2 e2d2 | d2cd (ed)cB (AG)FE |
D2FA d2d2 d4 | d2cd e2e2 e4 | f2ef g2e2 b2g2 | fedc d4 D4 ::
d2fg a2a2 a4 | f2ef g2g2 g4 | f2ef g2f2 e2d2 | d2cd (ed)cB AGFE |
d2fg a2a2 a4 | f2ef g2g2 g4 | f2ef g2e2 b2g2 | fedc d4 D4 :|
(:musicend:)
(:music:)
